X:565
T:Alastair of the Dun
D:Andrew Rankine
Z:Nigel Gatherer
L:1/8
M:2/4
K:Gm
GG B2    | BA/G/ A2    | cc/c/ FF    | c/c/c/c/ FF  |
GG B2    | BA/G/ AB/c/ | dB    cA    | G2       G2 :|
dc GA/c/ | dc    G2    | cA    FA/B/ | cA       F2  |
dc GA/c/ | dc    GA/c/ | dB    cA    | G2       G2 :|]
<end>
<start>
